static/img/svg/user-detail.svg

<svg xmlns="http://www.w3.org/2000/svg" width="24" height="24" viewBox="0 0 24 24"><path d="M14 11.004h8v2h-8zM16 15.004h5.968v2H16zM14 7h7.928v2H14zM4 18c0-2.467 1.532-4 4-4s4 1.533 4 4v1h2v-1c0-2.46-1.151-4.343-3.02-5.299A3.989 3.989 0 0 0 12 10c0-2.28-1.72-4-4-4s-4 1.72-4 4c0 1.065.387 1.999 1.02 2.701C3.151 13.657 2 15.54 2 18v1h2v-1zm2-8c0-1.178.822-2 2-2s2 .822 2 2-.822 2-2 2-2-.822-2-2z"/></svg>

<svg xmlns="http://www.w3.org/2000/svg" width="24" height="24" viewBox="0 0 24 24"><path d="M14 11.004H22V13.004H14zM16 15.004H21.968V17.003999999999998H16zM13.928 7H21.928V9H13.928zM4 18c0-2.467 1.532-4 4-4s4 1.533 4 4v1h2v-1c0-2.46-1.151-4.343-3.02-5.299C11.613 11.999 12 11.065 12 10c0-2.28-1.72-4-4-4s-4 1.72-4 4c0 1.065.387 1.999 1.02 2.701C3.151 13.657 2 15.54 2 18v1h2V18zM8 8c1.178 0 2 .822 2 2s-.822 2-2 2-2-.822-2-2S6.822 8 8 8z"/></svg>
